!!!COM:	Bach, Johann Sebastian
!!!CDT:	1685/02/21/-1750/07/28/
!!!OTL@@DE:	Es woll' uns Gott gen&auml;dig sein
!!!SCT:	BWV 312
!!!PC#:	352
!!!AGN:	chorale
**kern	**kern	**kern	**kern
*ICvox	*ICvox	*ICvox	*ICvox
*Ibass	*Itenor	*Ialto	*Isoprn
*I"Bass	*I"Tenor	*I"Alto	*I"Soprano
*>[A,A,B]	*>[A,A,B]	*>[A,A,B]	*>[A,A,B]
*>norep[A,B]	*>norep[A,B]	*>norep[A,B]	*>norep[A,B]
*>A	*>A	*>A	*>A
*clefF4	*clefGv2	*clefG2	*clefG2
*k[]	*k[]	*k[]	*k[]
*a:	*a:	*a:	*a:
*M4/4	*M4/4	*M4/4	*M4/4
*met(c)	*met(c)	*met(c)	*met(c)
*MM100	*MM100	*MM100	*MM100
4E	4e	4g#	4b
=1	=1	=1	=1
4.A	8eL	8aL	4cc
.	8cJ	8eJ	.
.	8dL	8fL	4b
8GnX	8eJ	[8eJ	.
4.F	4A	8eL]	4a
.	.	8dJ	.
.	4G	[4gnX	8bL
8E	.	.	8ccJ
=2	=2	=2	=2
4.D	4A	8gL]	4dd
.	.	8fJ	.
.	4B-	8gL	4ee
8C#	.	8eJ	.
4D	8AL	4f	4dd
.	8G#J	.	.
4AA	4A	8eL	4cc
.	.	8d#J	.
=3	=3	=3	=3
2E;	4A	2e;	2b;
.	4G#;	.	.
4r	4ry	4ry	4r
4D	8AL	4f	4dd
.	8BnXJ	.	.
=4	=4	=4	=4
4A	4c	8eL	4cc
.	.	8f#J	.
8GnXL	4d	4g	4b
8FnXJ	.	.	.
4E	8eL	4g	8ccL
.	8dJ	.	8bJ
8FL	4c	4f	4a
8EJ	.	.	.
=5	=5	=5	=5
8DL	8B-	4.e	4g
8C#J	4A	.	.
4D	.	.	4f
.	8B	16dLL	.
.	.	16cJJ	.
4E;	4G#;	4B;	4e;
=:|!	=:|!	=:|!	=:|!
*>B	*>B	*>B	*>B
4E	4B	8eL	4gnX
.	.	8dJ	.
=6	=6	=6	=6
8AAL	8AL	8cL	4f
8BBJ	[8GJ	[8dJ	.
[4C	8GL]	8dL]	4e
.	8AJ	8cJ	.
8CL]	4F	8AL	4d
8BBJ	.	[8GJ	.
8CL	4E	8GL]	8eL
8BBJ	.	8G#J	8dJ
=7	=7	=7	=7
8AAL	4E	4.A	8cL
8GGJ	.	.	8dJ
4FF	4A	.	4d
.	.	8B	.
4EE;	8AL	8cL	4e;
.	8G#;J	8B;J	.
4E	4G#	4e	4b
=8	=8	=8	=8
4.AA	16ALL	8eL	4cc
.	16BJJ	.	.
.	4c	8aJ	.
.	.	8gnXL	8bL
8BB	8d	8fJ	8aJ
4.C	8eL	4e	4g
.	8EJ	.	.
.	8F#L	4d	8aL
8BB	8G#J	.	8bJ
=9	=9	=9	=9
8AAL	4.A	8cL	4cc
8AJ	.	8eJ	.
8FnXL	.	4a	4dd
8DJ	8f	.	.
4E;	4e;	8aL	4b;
.	.	8g#;J	.
4C	8GnXL	8gL	4ee
.	8AJ	8f#J	.
=10	=10	=10	=10
4G	8BL	4g	8ddL
.	8cJ	.	8ccJ
8GGL	4d	4g	8bL
8AAJ	.	.	8ccJ
8BBL	4d	4.g	4dd
8CJ	.	.	.
[4D	4d	.	4a
.	.	8fnX	.
=11	=11	=11	=11
8DL]	8eL	4.e	4g
8C#J	8AJ	.	.
4D	4A	.	4f
.	.	8d	.
4AA;	4A;	8dL	4e;
.	.	8c#;J	.
4D	4F	8AL	4d
.	.	8BJ	.
=12	=12	=12	=12
8CnXL	4.E	4cnX	4g
8BBJ	.	.	.
4AA	.	4c	4a
.	8F#	.	.
4E	4G	8BL	8bL
.	.	8eJ	8ccJ
8F#L	8AL	8dL	4dd
8G#J	8BJ	8fnXJ	.
=13	=13	=13	=13
8AL	8cL	8eL	4cc
8CJ	8eJ	[8aJ	.
8DL	8fnXL	8aL]	4b
8EJ	8eJ	8g#J	.
4F;	4c;	4a;	4a;
8EL	4e	8gL	4cc
8F#J	.	8aJ	.
=14	=14	=14	=14
4.G	4d	8bL	4b
.	.	8gJ	.
.	8c#L	8eL	4a
8FnX	8dJ	8fJ	.
8EL	8eL	8BL	8gL
8DJ	8BJ	8dJ	8fJ
8CL	4c	8gL	8eL
8AAJ	.	8fJ	8fJ
=15	=15	=15	=15
8BBL	8dL	8fL	4g
8C#J	[8AJ	[8eJ	.
8DL	8AL]	8eL]	4f
8GG#J	[8BJ	[8dJ	.
8AAL	8BL]	8dL]	[2e
8BBJ	8EJ	16eL	.
.	.	16dJJ	.
8CL	[4A	4cnX	.
8DJ	.	.	.
=16	=16	=16	=16
2.E;	4A]	2.B;	2.e;]
.	8G#L	.	.
.	8F#J	.	.
.	4G#;	.	.
==	==	==	==
*-	*-	*-	*-
!!!hum2abc: -Q ''
!!!title: @{PC#}. @{OTL@@DE}
!!!YOR1: 371 vierstimmige Choralges&auml;nge von Johann Sebastian Bach, 
!!!YOR2: 4th ed. by Alfred D&ouml;rffel (Leipzig: Breitkopf und H&auml;rtel, 
!!!YOR2: c.1875). 178 pp. Plate "V.A.10".  reprint: J.S. Bach, 371 Four-Part 
!!!YOR4: Chorales (New York: Associated Music Publishers, Inc., c.1940).
!!!SMS: B&H, 4th ed, Alfred D&ouml;rffel, c.1875, plate V.A.10
!!!EED:  Craig Stuart Sapp
!!!EEV:  2009/05/22
